icons/outline/database-cog.svg

<!--
category: Database
tags: [gear, settings, manage, configure, organize, control, adjust, customize, optimize, tune]
version: "2.13"
unicode: "fa10"
-->
<svg
  xmlns="http://www.w3.org/2000/svg"
  width="24"
  height="24"
  viewBox="0 0 24 24"
  fill="none"
  stroke="currentColor"
  stroke-width="2"
  stroke-linecap="round"
  stroke-linejoin="round"
>
  <path d="M4 6c0 1.657 3.582 3 8 3s8 -1.343 8 -3s-3.582 -3 -8 -3s-8 1.343 -8 3m0 0v6c0 1.657 3.582 3 8 3c.21 0 .42 -.003 .626 -.01m7.374 -3.49v-5.5m-16 6v6c0 1.657 3.582 3 8 3m7.001 -2m-2 0a2 2 0 1 0 4 0a2 2 0 1 0 -4 0m2 -3.5v1.5m0 4v1.5m3.031 -5.25l-1.299 .75m-3.463 2l-1.3 .75m0 -3.5l1.3 .75m3.463 2l1.3 .75" />
</svg>

<!--
category: Database
tags: [gear, settings, manage, configure, organize, control, adjust, customize, optimize, tune]
version: "2.13"
unicode: "fa10"
-->
<svg
  xmlns="http://www.w3.org/2000/svg"
  width="24"
  height="24"
  viewBox="0 0 24 24"
  fill="none"
  stroke="currentColor"
  stroke-width="2"
  stroke-linecap="round"
  stroke-linejoin="round"
>
    <path d="M4 6c0 1.657 3.582 3 8 3s8 -1.343 8 -3s-3.582 -3 -8 -3s-8 1.343 -8 3M4 6v6c0 1.657 3.582 3 8 3c.21 0 .42 -.003 .626 -.01M20 11.5v-5.5M4 12v6c0 1.657 3.582 3 8 3M19.001 19m-2 0a2 2 0 1 0 4 0a2 2 0 1 0 -4 0M19.001 15.5v1.5M19.001 21v1.5M22.032 17.25l-1.299 .75M17.27 20l-1.3 .75M15.97 17.25l1.3 .75M20.733 20l1.3 .75" />
</svg>
